Font-Source/Egyptian2/svg-my/137EF.svg

<?xml version="1.0" encoding="UTF-8" standalone="no"?>
<svg
   width="20.560665"
   height="17.972734"
   version="1.1"
   id="svg1"
   sodipodi:docname="137EF.svg"
   inkscape:version="1.4.2 (f4327f4, 2025-05-13)"
   xmlns:inkscape="http://www.inkscape.org/namespaces/inkscape"
   xmlns:sodipodi="http://sodipodi.sourceforge.net/DTD/sodipodi-0.dtd"
   xmlns="http://www.w3.org/2000/svg"
   xmlns:svg="http://www.w3.org/2000/svg">
  <defs
     id="defs1" />
  <sodipodi:namedview
     id="namedview1"
     pagecolor="#ffffff"
     bordercolor="#666666"
     borderopacity="1.0"
     inkscape:showpageshadow="2"
     inkscape:pageopacity="0.0"
     inkscape:pagecheckerboard="0"
     inkscape:deskcolor="#d1d1d1"
     inkscape:zoom="32"
     inkscape:cx="11.078125"
     inkscape:cy="7.453125"
     inkscape:window-width="1680"
     inkscape:window-height="998"
     inkscape:window-x="-8"
     inkscape:window-y="-8"
     inkscape:window-maximized="1"
     inkscape:current-layer="svg1" />
  <path
     style="fill:#000000;stroke:none"
     d="M 3.5878906,0 C 1.7198206,0 0.78515625,0.86260335 0.78515625,2.5878906 H 0.01757813 L 0.78515625,3.3027344 V 3.640625 H 0.01757813 L 0.78515625,4.4082031 V 4.7480469 H 0.01757813 L 0.78515625,5.4785156 V 5.8183594 H 0 L 0.78515625,6.5332031 V 6.8535156 L 0.01757813,6.8710938 0.78515625,7.5683594 V 7.90625 h -0.75 L 0.625,8.5800781 C 0.631507,8.8388502 0.6596095,9.0117325 0.7109375,9.1015625 H 0.01757813 L 0.78515625,9.8164062 V 10.15625 H 0.01757813 l 0.76757812,0.767578 v 0.337891 H 0.01757813 l 0.76757812,0.732422 v 0.33789 H 0 l 0.78515625,0.714844 v 0.320313 H 0.01757813 l 0.76757812,0.714843 v 0.339844 h -0.75 l 0.75,0.855469 v 2.677734 H 1.4453125 V 9.1054688 c 0.169735,-0.060238 0.2602009,-0.0967 0.2714844,-0.1074219 H 1.71875 C 2.551175,9.7564541 3.6785116,10.113906 5.1035156,10.066406 6.4956436,9.2930029 7.3184901,8.7659441 7.5683594,8.4863281 7.8182287,8.2067121 8.0039715,8.263598 8.1289062,8.65625 c 0.224563,0.7057675 0.4072916,1.341972 1.0625,3.908203 C 8.0015532,11.529281 6.75332,10.949959 5.4433594,10.886719 5.0273951,10.866638 4.7614735,11.10095 4.6484375,11.529297 c -0.113036,0.428347 -0.09786,2.034105 0.044922,4.818359 v 0.01953 c 0,0.226071 -0.174384,0.385278 -0.5253906,0.480468 C 3.8169619,16.942848 3.348653,17.098327 2.765625,17.3125 H 2.4804688 c -0.2498695,0 -0.2612289,0.214231 -0.035156,0.642578 h 3.3378906 c 0.1585933,-0.12335 0.2058094,-0.348227 0.1425781,-0.673828 0.1589933,0.318319 0.4696728,0.541188 0.75,0.691406 H 7.6035156 C 8.5078043,17.603802 9.7628401,16.81326 11.369141,15.599609 l -0.125,1.660157 c -0.475941,0 -0.714844,0.08147 -0.714844,0.248046 v 0.447266 h 1.517578 l 0.482422,-2.765625 c 0,-0.666318 -0.286293,-0.93557 -0.857422,-0.804687 0.547334,-0.72581 0.577692,-1.563742 0.08984,-2.515625 0.234591,-1.9407083 0.382587,-2.816204 0.507812,-3.275391 0.05354,-0.196326 0.197667,-0.1925179 0.429688,0.00977 0.232021,0.202276 0.959998,0.7368788 2.185547,1.605468 1.177955,-0.0238 2.438669,-0.4105482 3.783203,-1.1601555 l 0.447265,0.1542969 v 8.7519526 h 0.660157 v -2.677734 l 0.75,-0.855469 h -0.75 v -0.339844 l 0.767578,-0.714843 h -0.767578 v -0.320313 l 0.785156,-0.714844 h -0.785156 v -0.33789 l 0.767578,-0.732422 H 19.775391 V 10.923828 L 20.542969,10.15625 H 19.775391 V 9.8164062 L 20.542969,9.1015625 H 19.775391 V 8.7636719 l 0.75,-0.8574219 h -0.75 V 7.5683594 L 20.542969,6.8710938 19.775391,6.8535156 V 6.5332031 L 20.560547,5.8183594 H 19.775391 V 5.4785156 L 20.542969,4.7480469 H 19.775391 V 4.4082031 L 20.542969,3.640625 H 19.775391 V 3.3027344 L 20.542969,2.5878906 H 19.775391 C 19.775391,0.86260337 18.840726,0 16.972656,0 v 0.4453125 c 1.427825,0 2.142578,0.7261137 2.142578,2.1777344 v 5.4257812 h -0.03516 c -0.32126,0.1308847 -0.577201,0.339436 -0.767578,0.625 -0.618723,0.214174 -1.149599,0.3222655 -1.589844,0.3222657 -0.440245,0 -0.963486,0.04171 -1.570312,0.125 C 14.319455,8.5856597 13.545943,7.9372873 12.832031,7.1757812 12.629756,6.8188246 12.076164,6.6386719 11.171875,6.6386719 V 6.3535156 C 11.377881,6.2684469 11.61293,6.0777844 11.761719,5.8164062 12.219833,5.0116382 12.288662,4.4171023 12.056641,3.828125 11.839017,3.275696 11.576841,2.755449 10.423828,2.6660156 V 0.9296875 c 0,-0.25011733 0.05492,-0.375 0.16211,-0.375 0.107187,0 0.160156,0.12488267 0.160156,0.375 h 0.375 C 11.121056,0.31034883 10.912957,0 10.496094,0 10.079231,0 9.8710937,0.31034883 9.8710938,0.9296875 v 0.5 H 9.5488281 c -0.119105,0 -0.1777345,0.077587 -0.1777343,0.2324219 0,0.1667453 0.05863,0.2556681 0.1777343,0.2675781 h 0.3222657 v 0.7148437 0.00195 c 1.449e-4,8.103e-4 0.00185,0.00508 0.00195,0.00586 v 0.00195 c -0.042263,0.00123 -0.08484,0.00376 -0.1289063,0.00586 C 9.2444019,2.6839538 8.882322,2.9986434 8.65625,3.6054688 8.57296,3.9624237 8.426974,4.2884742 8.21875,4.5859375 8.0105253,4.8834015 8.0674112,5.0332031 8.3886719,5.0332031 8.3172806,5.1402898 8.32296,5.1990395 8.40625,5.2109375 8.334859,5.2704305 8.329179,5.3216366 8.388672,5.3632812 c 0.059493,0.041645 0.072219,0.1397953 0.070312,0.2949219 -0.00195,0.1584511 0.2120722,0.2408071 0.4648437,0.25 H 9.28125 c 0.142782,0.1189853 0.2205232,0.3616148 0.2324219,0.7304688 -1.0470707,0 -1.6784042,0.2028712 -1.8925781,0.6074219 C 6.8119935,7.7934254 5.9550702,8.4247592 5.0507812,9.1386719 4.2892753,9.0553819 3.6826128,8.9890006 3.2304688,8.9414062 2.7783239,8.8938122 2.3915725,8.7876734 2.0703125,8.6210938 1.9028611,8.3846924 1.6943063,8.2042735 1.4453125,8.0820312 V 2.6230469 c 0,-1.4516207 0.7147541,-2.1777344 2.1425781,-2.1777344 z m 6.4335934,2.9589844 c 1.188994,-0.044036 2.302973,0.9403776 1.615231,2.4140625 -0.249872,0.5354325 -0.486818,0.7193145 -0.712891,0.5527343 -0.226072,-0.1665786 -0.339844,-0.3751305 -0.339844,-0.625 0.226072,-0.356956 0.366382,-0.6242556 0.419922,-0.8027343 0.08075,-0.2691695 0.0673,-0.6932326 -0.330078,-0.75 -0.166579,-0.023797 -0.3391,0.023593 -0.517578,0.1425781 C 9.882588,3.747843 9.5432219,3.6170322 9.1386719,3.4980469 9.2316893,3.0701616 9.6851699,2.97144 10.021484,2.9589844 Z M 8.8710938,3.765625 c 0.4164478,0.071391 0.8566285,0.2329118 1.2968752,0.4589844 0.120329,-0.12608 0.222865,-0.1933741 0.359375,-0.203125 0.105858,-0.00757 0.228173,0.1334227 0.154297,0.3867187 -0.04165,0.142782 -0.21035,0.404403 -0.507813,0.7851563 0.09519,0.5711293 0.309419,0.9161709 0.642578,1.0351562 l -0.01014,0.746984 c 0.435692,-0.041894 0.867457,-0.010941 1.295294,0.09286 0.146426,0.035526 -0.0091,0.5469112 -0.107421,0.8027344 -0.294315,0.7652216 -0.497044,2.3658262 -0.660157,4.0332032 L 9.6015625,12.421875 C 9.3397945,11.3986 9.1312432,10.608059 8.9765625,10.048828 8.8218812,9.4895977 8.6569936,8.7331327 8.4785156,7.78125 c -0.081162,-0.4328614 -0.152002,-0.6594469 0,-0.7128906 C 8.8860261,6.9250793 9.3450964,6.9033332 9.8502023,6.9699754 9.899469,6.5028128 9.8680615,5.9950146 9.5488281,5.6757812 9.3879311,5.7041892 9.2156113,5.691226 8.90625,5.703125 8.703974,5.715023 8.6148749,5.645969 8.6386719,5.5507812 c 0.023797,-0.095189 0.012438,-0.1729298 -0.035156,-0.2324218 0.2007883,0.00669 0.3204722,-0.00623 0.359375,-0.039063 9.557e-4,-9.427e-4 0.00503,-0.00489 0.00586,-0.00586 0.00141,-0.00201 0.00495,-0.00764 0.00586,-0.00977 6.623e-4,-0.00219 0.00179,-0.00745 0.00195,-0.00977 C 8.97573,5.2313699 8.9521708,5.1995732 8.90625,5.1660156 8.751568,5.0529796 8.6434764,5.0207654 8.5839844,5.0683594 8.6196797,4.9136784 8.5305798,4.8302584 8.3164062,4.8183594 8.566275,4.4257074 8.7521076,4.0749863 8.8710938,3.765625 Z m 0.2285156,0.1855469 c -0.093701,0.00149 -0.1993738,0.017129 -0.3183594,0.046875 v 0.1601562 c 0.2379713,-0.071391 0.4332099,-0.07707 0.5878906,-0.017578 0.1546813,0.059493 0.3632327,0.1012027 0.625,0.125 L 9.90625,4.1933594 C 9.6682793,4.1100694 9.4805833,4.0418244 9.34375,3.9882812 9.2753336,3.9615077 9.1933104,3.9496851 9.0996094,3.9511719 Z m -0.00977,0.2382812 c -0.139808,-0.00297 -0.237472,0.0473 -0.2910157,0.1484375 L 8.6386719,4.4433594 V 4.515625 L 8.78125,4.5332031 c 0.1903767,0.130884 0.482348,0.1081645 0.875,-0.070312 H 9.9941406 V 4.3554688 H 9.6386719 C 9.4125999,4.2483821 9.2296516,4.1924278 9.0898438,4.1894531 Z M 9.0136719,4.3007812 C 8.9660779,4.3721723 8.971757,4.4385549 9.03125,4.4980469 8.959859,4.4861489 8.8934771,4.4671564 8.8339844,4.4433594 8.8577814,4.3957654 8.9184833,4.3483759 9.0136719,4.3007812 Z m 0.2324219,0 0.2851562,0.1074219 c -0.1070867,0.047594 -0.2018666,0.077946 -0.2851562,0.089844 0.071391,-0.059492 0.071391,-0.1258741 0,-0.1972659 z M 5.5175781,11.310547 c 0.033967,-3.35e-4 0.06793,0.0021 0.1035157,0.0059 1.2741464,0.133533 2.433398,0.719094 3.4804687,1.730469 -0.4283473,0.333159 -0.8150989,0.647849 -1.1601563,0.945313 L 6.3359375,12.386719 C 6.0384742,12.20824 5.9019842,12.285982 5.9257812,12.619141 c 0.035696,0.511637 -0.036366,1.156193 -0.2148437,1.935547 -0.178478,0.779352 -0.2675781,1.562352 -0.2675781,2.347656 0.130884,0.440245 0.1138441,0.701866 -0.052734,0.785156 h -2.75 v -0.125 c 0.356956,-0.0119 0.6262095,-0.05743 0.8046875,-0.134766 0.178478,-0.07734 0.6353376,-0.210013 1.3730469,-0.40039 0.118985,-0.0238 0.1796875,-0.215309 0.1796875,-0.572266 -0.059493,-2.415402 -0.052952,-4.005505 0.052734,-4.765625 0.037495,-0.269667 0.2290251,-0.376565 0.4667968,-0.378906 z m 6.0839839,1.076172 c 0.297464,0.868592 0.195052,1.549179 -0.304687,2.042969 -0.499738,0.493788 -1.132936,0.753543 -1.9003906,0.777343 -0.7674553,0.0238 -1.4954316,0.45794 -2.1855469,1.302735 -0.059493,0.273667 0.1092118,0.218643 0.5078125,-0.16211 0.3986013,-0.380753 0.9730492,-0.655596 1.7226562,-0.828125 0.7496078,-0.172528 1.2519948,-0.343185 1.5078128,-0.509765 0.255819,-0.166579 0.53048,-0.302735 0.830078,-0.302735 0.252405,0 0.363644,0.196857 0.339844,0.482422 L 11.761719,17.6875 h -0.982422 v -0.107422 l 0.785156,-0.08984 0.179688,-1.605468 c 0,-0.618724 -0.29765,-0.726816 -0.892579,-0.322266 -1.4397207,0.975679 -2.5525874,1.648723 -3.3378901,2.017578 -0.5235353,0.05949 -0.898928,-0.01825 -1.125,-0.232422 -0.2260727,-0.214174 -0.2317524,-0.564895 -0.017578,-1.052734 0.5949264,-0.939985 1.4082769,-1.812085 2.4375,-2.615234 1.0292231,-0.803151 1.9600721,-1.233479 2.7929681,-1.292969 z m -5.2656245,0.570312 1.3027344,1.302735 c -0.535434,0.475941 -0.9999271,0.993503 -1.3925781,1.552734 -0.2486057,0.368899 -0.3918814,0.672934 -0.4296876,0.912109 6.511e-4,-0.712577 0.073818,-1.342662 0.2167969,-1.892578 0.1546807,-0.594927 0.2551404,-1.22058 0.3027344,-1.875 z"
     id="path1"
     sodipodi:nodetypes="cccccccccccccccccccccccccccccccccccccccccccsscsscsccscccccccscccccsccccccccccccccccccccccccccccccccccccccccccccscccsccccsscssccsscssccccccccsccsccccccsccsccscsccsccscccccccscccssscccscccccsccccccsccscsccccccccssccccccccscccccscccccccsscsscssssccccccccscsccccccsc" />
</svg>

<?xml version="1.0" encoding="UTF-8" standalone="no"?>
<svg
   width="20.560665"
   height="17.972734"
   version="1.1"
   id="svg1"
   sodipodi:docname="137EF.svg"
   inkscape:version="1.4.2 (f4327f4, 2025-05-13)"
   xmlns:inkscape="http://www.inkscape.org/namespaces/inkscape"
   xmlns:sodipodi="http://sodipodi.sourceforge.net/DTD/sodipodi-0.dtd"
   xmlns="http://www.w3.org/2000/svg"
   xmlns:svg="http://www.w3.org/2000/svg">
  <defs
     id="defs1" />
  <sodipodi:namedview
     id="namedview1"
     pagecolor="#ffffff"
     bordercolor="#666666"
     borderopacity="1.0"
     inkscape:showpageshadow="2"
     inkscape:pageopacity="0.0"
     inkscape:pagecheckerboard="0"
     inkscape:deskcolor="#d1d1d1"
     inkscape:zoom="64"
     inkscape:cx="14.773438"
     inkscape:cy="5.0390625"
     inkscape:window-width="1680"
     inkscape:window-height="998"
     inkscape:window-x="-8"
     inkscape:window-y="-8"
     inkscape:window-maximized="1"
     inkscape:current-layer="svg1" />
  <path
     id="path1"
     style="fill:#000000;stroke:none"
     d="M 3.5878906 0 C 1.7198206 0 0.78515625 0.86260333 0.78515625 2.5878906 L 0.017578125 2.5878906 L 0.78515625 3.3027344 L 0.78515625 3.640625 L 0.017578125 3.640625 L 0.78515625 4.4082031 L 0.78515625 4.7480469 L 0.017578125 4.7480469 L 0.78515625 5.4785156 L 0.78515625 5.8183594 L 0 5.8183594 L 0.78515625 6.5332031 L 0.78515625 6.8535156 L 0.017578125 6.8710938 L 0.78515625 7.5683594 L 0.78515625 7.90625 L 0.03515625 7.90625 L 0.625 8.5800781 C 0.631507 8.8388502 0.6596095 9.0117325 0.7109375 9.1015625 L 0.017578125 9.1015625 L 0.78515625 9.8164062 L 0.78515625 10.15625 L 0.017578125 10.15625 L 0.78515625 10.923828 L 0.78515625 11.261719 L 0.017578125 11.261719 L 0.78515625 11.994141 L 0.78515625 12.332031 L 0 12.332031 L 0.78515625 13.046875 L 0.78515625 13.367188 L 0.017578125 13.367188 L 0.78515625 14.082031 L 0.78515625 14.421875 L 0.03515625 14.421875 L 0.78515625 15.277344 L 0.78515625 17.955078 L 1.4453125 17.955078 L 1.4453125 9.1054688 C 1.6150475 9.0452307 1.7055134 9.0087688 1.7167969 8.9980469 L 1.71875 8.9980469 C 2.551175 9.7564541 3.6785116 10.113906 5.1035156 10.066406 C 6.4956436 9.2930027 7.3184901 8.7659441 7.5683594 8.4863281 C 7.8182287 8.2067121 8.0039715 8.263598 8.1289062 8.65625 C 8.3534692 9.3620175 8.5361977 9.9982219 9.1914062 12.564453 C 8.0015531 11.529281 6.75332 10.949959 5.4433594 10.886719 C 5.0273951 10.866638 4.7614735 11.10095 4.6484375 11.529297 C 4.5354015 11.957644 4.5505774 13.563402 4.6933594 16.347656 L 4.6933594 16.367188 C 4.6933594 16.593259 4.5189755 16.752466 4.1679688 16.847656 C 3.8169619 16.942848 3.348653 17.098327 2.765625 17.3125 L 2.4804688 17.3125 C 2.2305993 17.3125 2.2192399 17.526731 2.4453125 17.955078 L 5.7832031 17.955078 C 5.9417964 17.831728 5.9890124 17.606851 5.9257812 17.28125 C 6.0847745 17.599569 6.3954539 17.822438 6.6757812 17.972656 L 7.6035156 17.972656 C 8.5078043 17.603802 9.7628405 16.81326 11.369141 15.599609 L 11.244141 17.259766 C 10.7682 17.259766 10.529297 17.341237 10.529297 17.507812 L 10.529297 17.955078 L 12.046875 17.955078 L 12.529297 15.189453 C 12.529297 14.523135 12.243004 14.253883 11.671875 14.384766 C 12.219209 13.658956 12.249567 12.821024 11.761719 11.869141 C 11.99631 9.9284331 12.144306 9.052937 12.269531 8.59375 C 12.323071 8.397424 12.467198 8.4012321 12.699219 8.6035156 C 12.93124 8.8057916 13.659217 9.340394 14.884766 10.208984 C 16.062721 10.185184 17.323435 9.7984354 18.667969 9.0488281 L 19.115234 9.203125 L 19.115234 17.955078 L 19.775391 17.955078 L 19.775391 15.277344 L 20.525391 14.421875 L 19.775391 14.421875 L 19.775391 14.082031 L 20.542969 13.367188 L 19.775391 13.367188 L 19.775391 13.046875 L 20.560547 12.332031 L 19.775391 12.332031 L 19.775391 11.994141 L 20.542969 11.261719 L 19.775391 11.261719 L 19.775391 10.923828 L 20.542969 10.15625 L 19.775391 10.15625 L 19.775391 9.8164062 L 20.542969 9.1015625 L 19.775391 9.1015625 L 19.775391 8.7636719 L 20.525391 7.90625 L 19.775391 7.90625 L 19.775391 7.5683594 L 20.542969 6.8710938 L 19.775391 6.8535156 L 19.775391 6.5332031 L 20.560547 5.8183594 L 19.775391 5.8183594 L 19.775391 5.4785156 L 20.542969 4.7480469 L 19.775391 4.7480469 L 19.775391 4.4082031 L 20.542969 3.640625 L 19.775391 3.640625 L 19.775391 3.3027344 L 20.542969 2.5878906 L 19.775391 2.5878906 C 19.775391 0.86260334 18.840726 2.9605947e-16 16.972656 0 L 16.972656 0.4453125 C 18.400481 0.4453125 19.115234 1.1714262 19.115234 2.6230469 L 19.115234 8.0488281 L 19.080078 8.0488281 C 18.758818 8.1797128 18.502877 8.3882641 18.3125 8.6738281 C 17.693777 8.8880021 17.162901 8.9960936 16.722656 8.9960938 C 16.282411 8.9960938 15.75917 9.0378037 15.152344 9.1210938 C 14.319455 8.5856597 13.545943 7.9372873 12.832031 7.1757812 C 12.629756 6.8188246 12.076164 6.6386719 11.171875 6.6386719 L 11.171875 6.3535156 C 11.377881 6.2684469 11.61293 6.0777843 11.761719 5.8164062 C 12.219833 5.0116382 12.288662 4.4171023 12.056641 3.828125 C 11.839017 3.275696 11.576841 2.755449 10.423828 2.6660156 L 10.423828 0.9296875 C 10.423828 0.67957017 10.478748 0.5546875 10.585938 0.5546875 C 10.693126 0.5546875 10.746094 0.67957017 10.746094 0.9296875 L 11.121094 0.9296875 C 11.121056 0.31034883 10.912957 0 10.496094 0 C 10.079231 0 9.8710937 0.31034883 9.8710938 0.9296875 L 9.8710938 1.4296875 L 9.5488281 1.4296875 C 9.4297231 1.4296875 9.3710937 1.5072745 9.3710938 1.6621094 C 9.3710938 1.8288547 9.4297241 1.9177775 9.5488281 1.9296875 L 9.8710938 1.9296875 L 9.8710938 2.6445312 C 9.8722313 2.6481233 9.8718754 2.6507955 9.8730469 2.6542969 C 9.8307837 2.6555254 9.7882065 2.6580579 9.7441406 2.6601562 C 9.2444019 2.6839537 8.882322 2.9986434 8.65625 3.6054688 C 8.57296 3.9624238 8.426974 4.2884742 8.21875 4.5859375 C 8.0105253 4.8834015 8.0674112 5.0332031 8.3886719 5.0332031 C 8.3172806 5.1402898 8.32296 5.1990395 8.40625 5.2109375 C 8.334859 5.2704305 8.3291789 5.3216366 8.3886719 5.3632812 C 8.4481649 5.4049262 8.4608914 5.5030765 8.4589844 5.6582031 C 8.4570344 5.8166542 8.6710566 5.8990102 8.9238281 5.9082031 L 9.28125 5.9082031 C 9.424032 6.0271884 9.5017732 6.2698179 9.5136719 6.6386719 C 8.4666012 6.6386719 7.8352677 6.8415431 7.6210938 7.2460938 C 6.8119935 7.7934255 5.9550701 8.4247592 5.0507812 9.1386719 C 4.2892753 9.0553819 3.6826128 8.9890005 3.2304688 8.9414062 C 2.7783239 8.8938122 2.3915725 8.7876735 2.0703125 8.6210938 C 1.9028611 8.3846925 1.6943063 8.2042735 1.4453125 8.0820312 L 1.4453125 2.6230469 C 1.4453125 1.1714262 2.1600666 0.4453125 3.5878906 0.4453125 L 3.5878906 0 z M 10.021484 2.9589844 C 10.346735 2.9469384 11.31375 2.9954984 11.734375 3.9453125 C 11.918805 4.3617612 11.886593 4.8376114 11.636719 5.3730469 C 11.386847 5.9084794 11.149901 6.0923614 10.923828 5.9257812 C 10.697756 5.7592026 10.583984 5.5506507 10.583984 5.3007812 C 10.810056 4.9438252 10.950366 4.6765256 11.003906 4.4980469 C 11.084656 4.2288774 11.071206 3.8048143 10.673828 3.7480469 C 10.507249 3.7242499 10.334728 3.7716399 10.15625 3.890625 C 9.882588 3.747843 9.5432219 3.6170322 9.1386719 3.4980469 C 9.2316893 3.0701616 9.6851695 2.97144 10.021484 2.9589844 z M 8.8710938 3.765625 C 9.2875416 3.837016 9.7277225 3.9985368 10.167969 4.2246094 C 10.288298 4.0985294 10.390834 4.0312353 10.527344 4.0214844 C 10.633202 4.0139144 10.755517 4.1549071 10.681641 4.4082031 C 10.639991 4.5509851 10.471291 4.8126061 10.173828 5.1933594 C 10.269018 5.7644887 10.483247 6.1095303 10.816406 6.2285156 L 10.816406 6.6386719 C 10.816406 6.7814549 10.649564 6.8535156 10.316406 6.8535156 C 10.018942 6.8535156 9.8691406 6.7814546 9.8691406 6.6386719 C 9.8691406 6.2103252 9.7630014 5.8899545 9.5488281 5.6757812 C 9.3879311 5.7041892 9.2156113 5.691226 8.90625 5.703125 C 8.703974 5.715023 8.6148749 5.645969 8.6386719 5.5507812 C 8.6624689 5.4555922 8.6511096 5.3778514 8.6035156 5.3183594 C 8.8043039 5.3250494 8.9239878 5.3121299 8.9628906 5.2792969 C 8.9638463 5.2783542 8.96792 5.2744075 8.96875 5.2734375 C 8.97016 5.2714275 8.9736994 5.2658019 8.9746094 5.2636719 C 8.9752717 5.2614819 8.9764025 5.2562262 8.9765625 5.2539062 C 8.97573 5.2313699 8.9521708 5.1995732 8.90625 5.1660156 C 8.751568 5.0529796 8.6434764 5.0207654 8.5839844 5.0683594 C 8.6196797 4.9136784 8.5305797 4.8302584 8.3164062 4.8183594 C 8.566275 4.4257074 8.7521076 4.0749863 8.8710938 3.765625 z M 9.0996094 3.9511719 C 9.0059084 3.9526619 8.9002356 3.9683009 8.78125 3.9980469 L 8.78125 4.1582031 C 9.0192213 4.0868121 9.2144599 4.081133 9.3691406 4.140625 C 9.5238219 4.200118 9.7323733 4.2418277 9.9941406 4.265625 L 9.90625 4.1933594 C 9.6682793 4.1100694 9.4805833 4.0418244 9.34375 3.9882812 C 9.2753336 3.9615077 9.1933104 3.9496851 9.0996094 3.9511719 z M 9.0898438 4.1894531 C 8.9500359 4.1864831 8.8523718 4.2367531 8.7988281 4.3378906 L 8.6386719 4.4433594 L 8.6386719 4.515625 L 8.78125 4.5332031 C 8.9716267 4.6640871 9.263598 4.6413676 9.65625 4.4628906 L 9.9941406 4.4628906 L 9.9941406 4.3554688 L 9.6386719 4.3554688 C 9.4125999 4.2483821 9.2296516 4.1924278 9.0898438 4.1894531 z M 9.0136719 4.3007812 C 8.9660779 4.3721723 8.971757 4.4385549 9.03125 4.4980469 C 8.959859 4.4861489 8.8934771 4.4671564 8.8339844 4.4433594 C 8.8577814 4.3957654 8.9184833 4.3483759 9.0136719 4.3007812 z M 9.2460938 4.3007812 L 9.53125 4.4082031 C 9.4241633 4.4557971 9.3293835 4.4861489 9.2460938 4.4980469 C 9.3174848 4.4385549 9.3174848 4.3721727 9.2460938 4.3007812 z M 9.4414062 6.9257812 C 9.726971 7.1161582 10.013263 7.2109375 10.298828 7.2109375 C 10.596291 7.2109375 10.88063 7.1161576 11.154297 6.9257812 L 12.101562 7.0683594 C 12.250557 7.0907854 12.092462 7.6152706 11.994141 7.8710938 C 11.699826 8.6363154 11.497097 10.23692 11.333984 11.904297 L 9.6015625 12.421875 C 9.3397945 11.3986 9.1312432 10.608059 8.9765625 10.048828 C 8.8218812 9.4895976 8.6569936 8.7331327 8.4785156 7.78125 C 8.3973536 7.3483886 8.3191298 7.0919601 8.4785156 7.0683594 L 9.4414062 6.9257812 z M 5.5175781 11.310547 C 5.5515451 11.310212 5.585508 11.312606 5.6210938 11.316406 C 6.8952402 11.449939 8.0544918 12.0355 9.1015625 13.046875 C 8.6732152 13.380034 8.2864636 13.694724 7.9414062 13.992188 L 6.3359375 12.386719 C 6.0384742 12.20824 5.9019842 12.285982 5.9257812 12.619141 C 5.9614772 13.130778 5.8894152 13.775334 5.7109375 14.554688 C 5.5324595 15.334041 5.4433594 16.11704 5.4433594 16.902344 C 5.5742434 17.342589 5.5572035 17.60421 5.390625 17.6875 L 2.640625 17.6875 L 2.640625 17.5625 C 2.997581 17.5506 3.2668345 17.50507 3.4453125 17.427734 C 3.6237905 17.350394 4.0806501 17.217721 4.8183594 17.027344 C 4.9373444 17.003544 4.9980469 16.812035 4.9980469 16.455078 C 4.9385539 14.039676 4.9450953 12.449573 5.0507812 11.689453 C 5.0882762 11.419786 5.2798063 11.312888 5.5175781 11.310547 z M 11.601562 12.386719 C 11.899026 13.255311 11.796614 13.935899 11.296875 14.429688 C 10.797137 14.923476 10.163939 15.183231 9.3964844 15.207031 C 8.6290291 15.230831 7.9010528 15.664971 7.2109375 16.509766 C 7.1514445 16.783433 7.3201493 16.728409 7.71875 16.347656 C 8.1173513 15.966903 8.6917992 15.69206 9.4414062 15.519531 C 10.191014 15.347003 10.693401 15.176346 10.949219 15.009766 C 11.205038 14.843187 11.479699 14.707031 11.779297 14.707031 C 12.031702 14.707031 12.142941 14.903888 12.119141 15.189453 L 11.761719 17.6875 L 10.779297 17.6875 L 10.779297 17.580078 L 11.564453 17.490234 L 11.744141 15.884766 C 11.744141 15.266042 11.44649 15.15795 10.851562 15.5625 C 9.4118408 16.538179 8.2989746 17.211223 7.5136719 17.580078 C 6.9901366 17.639568 6.6147439 17.561828 6.3886719 17.347656 C 6.1625992 17.133482 6.1569195 16.782761 6.3710938 16.294922 C 6.9660202 15.354937 7.7793708 14.482838 8.8085938 13.679688 C 9.837817 12.876537 10.768665 12.446209 11.601562 12.386719 z M 6.3359375 12.957031 L 7.6386719 14.259766 C 7.1032379 14.735707 6.6387448 15.253269 6.2460938 15.8125 C 5.9974881 16.181399 5.8542124 16.485434 5.8164062 16.724609 C 5.8170573 16.012032 5.8902242 15.381947 6.0332031 14.832031 C 6.1878838 14.237104 6.2883435 13.611451 6.3359375 12.957031 z " />
</svg>
